32x32/apps/lutris_torchlight-ii.svg

<svg height="32" width="32" xmlns="http://www.w3.org/2000/svg"><rect height="28" opacity=".2" rx="1.4" width="28" x="2" y="3"/><rect fill="#4f4f4f" height="28" rx="1.4" width="28" x="2" y="2"/><path d="m9 6.5v5.6c0-.7 1.726-2.1 2.8-2.1h3.2v13l-2 2h7l-2-2v-9.25c.58-4.092 2.03-5.022 4.965-5.75h-12.777zm-2.5 7.5 1.5 2v8.9l-1.5 2.1h7l-1.5-2.1v-8.9l1.5-2zm13 0 1.5 2v8.9l-1.5 2.1h7l-1.5-2.1v-8.9l1.5-2z" opacity=".2"/><path d="m9 5.5v5.6c0-.7 1.725-2.1 2.8-2.1h3.2v13l-2 2h7l-2-2v-9.25c.58-4.091 2.03-5.022 4.964-5.75h-12.777z" fill="#ff8e19"/><path d="m6.5 13h7l-1.5 2v8.9l1.5 2.1h-7l1.5-2.1v-8.9zm13 0h7l-1.5 2v8.9l1.5 2.1h-7l1.5-2.1v-8.9z" fill="#1289db"/><g fill="#f4f4f7"><path d="m9 5.5v1l1.188 1.5h10.18c.697-.447 1.548-.74 2.597-1h-12.777zm-2.5 7.5.75 1h5.5l.75-1zm13 0 .75 1h5.5l.75-1zm-4.5 9-2 2h1l1-1zm3 0v1l1 1h1zm-10 1.9-1.5 2.1h.715l.785-1.1zm4 0v1l.785 1.1h.715zm9 0-1.5 2.1h.715l.785-1.1zm4 0v1l.785 1.1h.715z" opacity=".1"/><path d="m3.4 2c-.775 0-1.4.625-1.4 1.4v1c0-.775.625-1.4 1.4-1.4h25.2c.775 0 1.4.625 1.4 1.4v-1c0-.775-.625-1.4-1.4-1.4z" opacity=".1"/></g></svg>

<svg height="32" width="32" xmlns="http://www.w3.org/2000/svg">
    <rect height="28" opacity=".2" rx="1.4" width="28" x="2" y="3"/>
    <rect fill="#4f4f4f" height="28" rx="1.4" width="28" x="2" y="2"/>
    <path d="M9 6.5v5.6c0-.7 1.726-2.1 2.8-2.1H15v13l-2 2h7l-2-2v-9.25c.58-4.092 2.03-5.022 4.965-5.75H10.188zM6.5 14 8 16v8.9L6.5 27h7L12 24.9V16l1.5-2zm13 0 1.5 2v8.9L19.5 27h7L25 24.9V16l1.5-2z" opacity=".2"/>
    <path d="M9 5.5v5.6c0-.7 1.725-2.1 2.8-2.1H15v13l-2 2h7l-2-2v-9.25c.58-4.091 2.03-5.022 4.964-5.75H10.187z" fill="#ff8e19"/>
    <path d="M6.5 13h7L12 15v8.9l1.5 2.1h-7L8 23.9V15zm13 0h7L25 15v8.9l1.5 2.1h-7l1.5-2.1V15z" fill="#1289db"/>
    <g fill="#f4f4f7">
        <path d="M9 5.5v1L10.188 8h10.18c.697-.447 1.548-.74 2.597-1H10.188zM6.5 13l.75 1h5.5l.75-1zm13 0 .75 1h5.5l.75-1zM15 22l-2 2h1l1-1zm3 0v1l1 1h1zM8 23.9 6.5 26h.715L8 24.9zm4 0v1l.785 1.1h.715zm9 0L19.5 26h.715L21 24.9zm4 0v1l.785 1.1h.715zM3.4 2C2.625 2 2 2.625 2 3.4v1C2 3.625 2.625 3 3.4 3h25.2c.775 0 1.4.625 1.4 1.4v-1c0-.775-.625-1.4-1.4-1.4z" opacity=".1"/>
    </g>
</svg>
